X:482
T:La Russe #1
C:Joe Buchanan's Scottish Tome - Page 164.2
I:164 2
Z:Carl Allison
R:Polka
L:1/8
M:4/4
K:G
GG |"G" G2 BB B2 dd | "G"d2 g2 g2 fg | "C"a2 g2 e2 c2 | "Am"e2 d2 "D7"dcBA |
"G"G2 BB B2 dd | "G"d2 g2 g2 fg | "C"e2 d2 d2 F2 | "D7"A2 G2 "G"G4 :|
AA | "D"A2 dd "G"d2 cB | "D"A2 a2 "Bm"a2 f2 | "Em"g2 > f2 "A7"g2 e2 | "D"fgag "A7"f2 d2 |
"D"A2 dd "G"d2 cB | "D"A2 a2 "Bm"a2 f2 | "Em"g2 > f2 g2 e2 | "D"d4 d2 :|

